X: 11
T:Le roi a fait battre tambour
T:La marquise empoisonnée
C:Paroles et musique traditionnelle
Z:Transcrit et/ou corrigé par Michel BELLON - 2006-04-28
Z:Pour toute observation mailto:galouvielle@free.fr
M:6/8
L:1/8
K:C
z3 "Am" aef | "C"e3 "Dm"dcd | "Am"e3 aef | "C"e3 "Dm"dcd | "Am"e3 "G"def |
"C"g2a (g>fe) | "G"d2z "E"eef | e3 dcB | "Am"A3 cBc | "Dm"d2e (A>Gc/2B/2) | "Am"A3- Az2 |]

%%footer $D   Galouvielle-MBe 2006 \n-- (--)
